client/src/assets/public/images/icons/filter.svg

<?xml version="1.0" encoding="UTF-8"?>
<svg width="50px" height="44px" viewBox="0 0 50 44" version="1.1" xmlns="http://www.w3.org/2000/svg" xmlns:xlink="http://www.w3.org/1999/xlink">
    <!-- Generator: Sketch 48.2 (47327) - http://www.bohemiancoding.com/sketch -->
    <title>Group</title>
    <desc>Created with Sketch.</desc>
    <defs></defs>
    <g id="Page-1" stroke="none" stroke-width="1" fill="none" fill-rule="evenodd">
        <g id="Group" fill="#484848" fill-rule="nonzero">
            <path d="M26.5,3.6742667 C29.3657332,4.3523839 31.5,6.9299802 31.5,10 C31.5,13.0716993 29.3644318,15.6477442 26.5,16.3256843 L26.5,42 C26.5,42.8284271 25.8284271,43.5 25,43.5 C24.1715729,43.5 23.5,42.8284271 23.5,42 L23.5,16.3257333 C20.6342668,15.6476161 18.5,13.0700198 18.5,10 C18.5,6.9283007 20.6355682,4.3522558 23.5,3.6743157 L23.5,2 C23.5,1.1715729 24.1715729,0.5 25,0.5 C25.8284271,0.5 26.5,1.1715729 26.5,2 L26.5,3.6742667 Z M21.5,10 C21.5,11.9295787 23.0692032,13.5 25,13.5 C26.9295787,13.5 28.5,11.9307968 28.5,10 C28.5,8.0704213 26.9307968,6.5 25,6.5 C23.0704213,6.5 21.5,8.0692032 21.5,10 Z" id="Shape"></path>
            <path d="M8.5,27.6742667 C11.3657332,28.3523839 13.5,30.9299802 13.5,34 C13.5,37.0716993 11.3644318,39.6477442 8.5,40.3256843 L8.5,42 C8.5,42.8284271 7.8284271,43.5 7,43.5 C6.1715729,43.5 5.5,42.8284271 5.5,42 L5.5,40.3257333 C2.6342668,39.6476161 0.5,37.0700198 0.5,34 C0.5,30.9283007 2.6355682,28.3522558 5.5,27.6743157 L5.5,2 C5.5,1.1715729 6.1715729,0.5 7,0.5 C7.8284271,0.5 8.5,1.1715729 8.5,2 L8.5,27.6742667 Z M3.5,34 C3.5,35.9295787 5.0692032,37.5 7,37.5 C8.9295787,37.5 10.5,35.9307968 10.5,34 C10.5,32.0704213 8.9307968,30.5 7,30.5 C5.0704213,30.5 3.5,32.0692032 3.5,34 Z" id="Shape"></path>
            <path d="M44.5,18.6742667 C47.3657332,19.3523839 49.5,21.9299802 49.5,25 C49.5,28.0716993 47.3644318,30.6477442 44.5,31.3256843 L44.5,42 C44.5,42.8284271 43.8284271,43.5 43,43.5 C42.1715729,43.5 41.5,42.8284271 41.5,42 L41.5,31.3257333 C38.6342668,30.6476161 36.5,28.0700198 36.5,25 C36.5,21.9283007 38.6355682,19.3522558 41.5,18.6743157 L41.5,2 C41.5,1.1715729 42.1715729,0.5 43,0.5 C43.8284271,0.5 44.5,1.1715729 44.5,2 L44.5,18.6742667 Z M39.5,25 C39.5,26.9295787 41.0692032,28.5 43,28.5 C44.9295787,28.5 46.5,26.9307968 46.5,25 C46.5,23.0704213 44.9307968,21.5 43,21.5 C41.0704213,21.5 39.5,23.0692032 39.5,25 Z" id="Shape"></path>
        </g>
    </g>
</svg>

<svg xmlns="http://www.w3.org/2000/svg" width="50" height="44" fill="#484848" fill-rule="nonzero"><path d="M26.5 3.674c2.866.678 5 3.256 5 6.326a6.51 6.51 0 0 1-5 6.326V42a1.5 1.5 0 1 1-3 0V16.326c-2.866-.678-5-3.256-5-6.326a6.51 6.51 0 0 1 5-6.326V2a1.5 1.5 0 1 1 3 0v1.674zM21.5 10c0 1.93 1.57 3.5 3.5 3.5s3.5-1.57 3.5-3.5-1.57-3.5-3.5-3.5-3.5 1.57-3.5 3.5zm-13 17.674c2.866.678 5 3.256 5 6.326a6.51 6.51 0 0 1-5 6.326V42a1.5 1.5 0 1 1-3 0v-1.674C2.634 39.648.5 37.07.5 34a6.51 6.51 0 0 1 5-6.326V2a1.5 1.5 0 1 1 3 0v25.674zM3.5 34c0 1.93 1.57 3.5 3.5 3.5s3.5-1.57 3.5-3.5-1.57-3.5-3.5-3.5-3.5 1.57-3.5 3.5zm41-15.326c2.866.678 5 3.256 5 6.326a6.51 6.51 0 0 1-5 6.326V42a1.5 1.5 0 1 1-3 0V31.326c-2.866-.678-5-3.256-5-6.326a6.51 6.51 0 0 1 5-6.326V2a1.5 1.5 0 1 1 3 0v16.674zM39.5 25c0 1.93 1.57 3.5 3.5 3.5s3.5-1.57 3.5-3.5-1.57-3.5-3.5-3.5-3.5 1.57-3.5 3.5z"/></svg>
